X: 27854
T: Mother's Delight
R: reel
M: 4/4
K: Ddorian
FEFA G^FGA|=FEFA GECE|Ddd^c defe|d2^cd AB=cA|
~d3c AGAB|cAGF EDCE|Dddc AGAB|cAGE EDDE:|
|:FAdA FDDF|EGcG ECCE|FAdA FEDF|EDCE ~D3E|
FAdA FDDF|EGcG ECCE|~F3E FEDC|A,CEF ~D3E:|

